X:428
T: Frisch auf Soldatenblut (147), S. 326
N: T0316
O: Luxemburg
S: Singendes Volk, Esch-Alzette 1937, posth.]
N: Junglinster, hhh Jakob Santer, 26.6.1934
R: historische, Kriegs- und Soldatenlieder]
M: 4/4
L: 1/8
K: A
E2 | A2E2C2EA | A4z2
cd | e2e2d2G2 | A2z2
c2c2 | e2c2c2Bc | d2
B2A2AA | c2A2A2GA | B2z2
F3G | A2GFEEED | C4z2
cd | e2e2d2G2 | A4z2

@@@ Tune index: 8482
